sites/all/themes/sedermera/graphics/checkbox_checked.svg

<?xml version="1.0" encoding="utf-8"?> <!-- Generated by Layerhero SVG Exporter: http://www.layerhero.com/photoshop-svg-exporter --><!DOCTYPE svg PUBLIC "-//W3C//DTD SVG 1.1//EN" "http://www.w3.org/Graphics/SVG/1.1/DTD/svg11.dtd"><svg version="1.1" baseProfile="full" xmlns="http://www.w3.org/2000/svg" xmlns:xlink="http://www.w3.org/1999/xlink" xmlns:ev="http://www.w3.org/2001/xml-events" width="18" height="18" viewBox="0 0 18 18"><g transform="scale(NaN)" ><path fill-rule="evenodd"  fill="rgb( 131, 131, 131 )" d="M14.000,-0.000 C14.000,-0.000 4.000,-0.000 4.000,-0.000 C2.000,-0.000 -0.000,2.000 -0.000,4.000 C-0.000,4.000 -0.000,14.000 -0.000,14.000 C-0.000,16.000 2.000,18.000 4.000,18.000 C4.000,18.000 14.000,18.000 14.000,18.000 C16.000,18.000 18.000,16.000 18.000,14.000 C18.000,14.000 18.000,4.000 18.000,4.000 C18.000,2.000 16.000,-0.000 14.000,-0.000 ZM16.000,13.000 C16.000,14.994 14.971,16.000 13.000,16.000 C13.000,16.000 7.018,16.000 5.000,16.000 C2.982,16.000 2.000,14.997 2.000,13.000 C2.000,13.000 2.000,5.000 2.000,5.000 C2.000,2.984 2.985,2.000 5.000,2.000 C6.496,2.000 10.985,2.000 13.000,2.000 C15.015,2.000 16.000,2.958 16.000,5.000 C16.000,5.000 16.000,11.006 16.000,13.000 Z"/><path fill-rule="evenodd"  fill="rgb( 40, 40, 40 )" d="M14.000,7.000 C14.000,7.000 8.400,13.600 8.400,13.600 C8.000,14.100 7.400,14.100 7.000,13.600 C7.000,13.600 4.000,10.000 4.000,10.000 C3.200,8.900 5.200,6.900 6.000,8.000 C6.000,8.000 8.000,10.000 8.000,10.000 C8.000,10.000 12.000,5.000 12.000,5.000 C12.800,3.900 14.800,5.900 14.000,7.000 Z"/></g></svg>

<svg xmlns="http://www.w3.org/2000/svg" width="18" height="18" viewbox="0 0 18 18">
  <path fill-rule="evenodd" clip-rule="evenodd" fill="#838383" d="M14 0h-10c-2 0-4 2-4 4v10c0 2 2 4 4 4h10c2 0 4-2 4-4v-10c0-2-2-4-4-4zm1 13c0 1.1-.9 2-2 2h-8c-1.1 0-2-.9-2-2v-8c0-1.1.9-2 2-2h8c1.1 0 2 .9 2 2v8z"/>
  <path fill="#282828" d="M14 7l-5.6 6.6c-.4.5-1 .5-1.4 0l-3-3.6c-.8-1.1 1.2-3.1 2-2l2 2 4-5c.8-1.1 2.8.9 2 2z"/>
</svg>
